austria/municipalities/70302.svg

<?xml version="1.0" encoding="UTF-8" standalone="no"?>
<!-- Created with Inkscape (http://www.inkscape.org/) -->
<svg
   xmlns:svg="http://www.w3.org/2000/svg"
   xmlns="http://www.w3.org/2000/svg"
   version="1.0"
   width="485.24545"
   height="562.9267"
   id="svg2">
  <defs
     id="defs5">
    <clipPath
       id="clipPath23">
      <path
         d="M 0.029999,841.95 L 595.29,841.95 L 595.29,0.03 L 0.029999,0.03 L 0.029999,841.95 z"
         id="path25" />
    </clipPath>
    <clipPath
       id="clipPath17">
      <path
         d="M 0,841.89 L 595.276,841.89 L 595.276,0 L 0,0 L 0,841.89 z"
         id="path19" />
    </clipPath>
    <clipPath
       id="clipPath3383">
      <path
         d="M 0,841.89 L 595.276,841.89 L 595.276,0 L 0,0 L 0,841.89 z"
         id="path3385" />
    </clipPath>
    <clipPath
       id="clipPath3379">
      <path
         d="M 0.029999,841.95 L 595.29,841.95 L 595.29,0.03 L 0.029999,0.03 L 0.029999,841.95 z"
         id="path3381" />
    </clipPath>
    <clipPath
       id="clipPath223">
      <path
         d="M 404.161,505.122 L 404.161,338.712 L 559.342,338.712 L 559.342,505.122"
         id="path225" />
    </clipPath>
  </defs>
  <path
     d="M 479.74546,5.5 L 479.74546,332.91812 C 479.74546,456.90379 373.56527,557.42671 242.65664,557.42671 C 111.66319,557.42671 5.5,456.90379 5.5,332.91812 L 5.5,5.5 L 479.74546,5.5 z"
     id="path3563"
     style="fill:#ffdd00;fill-opacity:1;stroke:#231f20;stroke-width:11;stroke-linecap:butt;stroke-linejoin:miter;stroke-miterlimit:4;stroke-dasharray:none;stroke-opacity:1" />
  <path
     d="M 262.26382,160.71427 C 298.52142,145.97157 313.24134,177.77282 313.99049,192.57108 C 316.21995,236.61049 257.23075,224.78432 247.88854,255.67167 C 232.80126,216.55601 178.63737,229.98178 184.94823,192.86793 C 192.29459,149.66435 220.25888,160.60742 233.82905,167.21987 C 242.64771,172.72435 241.24897,168.62851 240.01622,160.32247 C 219.26243,69.507061 136.20826,178.51499 66.001282,92.475698 C 60.042316,135.1529 73.177704,155.09873 90.559899,169.98883 C 71.867011,186.77101 53.038531,203.3538 52.954517,247.50197 C 66.773864,237.5404 79.717033,234.2093 96.897606,234.33141 C 68.864969,252.73984 44.921898,274.34012 62.163998,328.08493 C 74.552592,315.14198 74.689041,303.1792 112.81614,288.17717 C 89.874137,322.56846 46.528899,379.14684 109.1274,421.36805 C 114.11256,392.54541 125.96741,366.2989 148.88661,344.20152 C 150.07876,401.26643 128.82189,470.9397 207.21333,484.64611 C 204.10355,445.01817 204.27858,406.65361 215.65535,372.59742 C 226.42139,415.71906 237.249,496.47888 323.32211,467.06887 C 296.99245,438.29706 286.81663,404.60887 286.26137,367.99268 C 312.21086,396.38096 364.53428,452.28236 417.29843,396.6609 C 385.39058,385.56641 360.18475,367.76991 348.42537,336.52695 C 376.52204,345.48232 397.65704,361.17124 437.22755,345.09276 C 384.63278,276.06273 428.38848,223.50971 423.9823,167.38169 C 420.15315,118.60424 395.47206,78.552308 336.28131,77.772136 C 316.90031,77.516682 257.85162,87.685253 257.12479,157.20116 C 257.90927,161.7681 258.33079,162.36711 262.26382,160.71427 z"
     id="path2417"
     style="fill:#231f20;fill-opacity:1;fill-rule:evenodd;stroke:#231f20;stroke-width:1.5;stroke-linecap:round;stroke-linejoin:round;stroke-miterlimit:4;stroke-dasharray:none;stroke-opacity:1" />
</svg>

<svg xmlns="http://www.w3.org/2000/svg" version="1.0" width="485.245" height="562.927"><path d="M479.745 5.5v327.418c0 123.986-106.18 224.509-237.088 224.509C111.663 557.427 5.5 456.904 5.5 332.918V5.5h474.245z" style="fill:#fd0;fill-opacity:1;stroke:#231f20;stroke-width:11;stroke-linecap:butt;stroke-linejoin:miter;stroke-miterlimit:4;stroke-dasharray:none;stroke-opacity:1"/><path d="M262.264 160.714c36.257-14.742 50.977 17.059 51.726 31.857 2.23 44.04-56.76 32.213-66.101 63.1-15.088-39.115-69.252-25.69-62.94-62.803 7.346-43.204 35.31-32.26 48.88-25.648 8.819 5.504 7.42 1.409 6.187-6.898-20.754-90.815-103.808 18.193-174.015-67.846-5.959 42.677 7.177 62.623 24.559 77.513-18.693 16.782-37.521 33.365-37.605 77.513 13.819-9.962 26.762-13.293 43.943-13.17-28.033 18.408-51.976 40.008-34.734 93.753 12.389-12.943 12.525-24.906 50.652-39.908-22.942 34.391-66.287 90.97-3.689 133.191 4.986-28.823 16.84-55.07 39.76-77.166 1.192 57.064-20.065 126.738 58.326 140.444-3.11-39.628-2.934-77.992 8.442-112.049 10.766 43.122 21.594 123.882 107.667 94.472-26.33-28.772-36.505-62.46-37.06-99.076 25.949 28.388 78.272 84.29 131.036 28.668-31.907-11.095-57.113-28.891-68.873-60.134 28.097 8.955 49.232 24.644 88.803 8.566-52.595-69.03-8.84-121.583-13.246-177.711-3.829-48.778-28.51-88.83-87.7-89.61-19.382-.255-78.43 9.913-79.157 79.43.784 4.566 1.206 5.165 5.139 3.512z" style="fill:#231f20;fill-opacity:1;fill-rule:evenodd;stroke:#231f20;stroke-width:1.5;stroke-linecap:round;stroke-linejoin:round;stroke-miterlimit:4;stroke-dasharray:none;stroke-opacity:1"/></svg>
